X:1
T:Lancashire, 76.76 D
T:Lancashire, 76.76 D
T:Henry Thomas Smart, 1836
T:Public Domain Courtesy of the Cyber Hymnal™
C:Henry Thomas Smart, 1836
Z:Public Domain
Z:Courtesy of the Cyber Hymnal™
%%score ( 1 2 ) ( 3 4 )
L:1/8
Q:1/4=113
M:4/4
K:D
V:1 treble 
V:2 treble 
V:3 bass 
V:4 bass 
V:1
 [DA]2 | [DA]2 [DF]2 [DG]2 [DB]2 | [DA]4 [DF]2 [Fd]2 | [Gd]2 [DG]2 [DA]2 [DB]2 | [CE]6 [CA]2 | %5
 [DA]2 [DF]2 [DG]2 [DB]2 | [DA]4 [DF]2 [DF]2 | [CE]2 [Ec]2 [DB]2 [D^G]2 | [CA]6 [CA]2 | %9
 [DA]2 [DF]2 [A,D]2 [Fd]2 | (d3 B) [DG]2 [^DB]2 | [EB]2 [E^G]2 [B,E]2 [Ge]2 | (e4 c2) [EA]2 | %13
 [A,d]2 [Dd]2 [Ed]2 [Fd]2 | [Gd]4 [Dc]2 [DB]2 | [DA]2 [DF]2 [A,E]3 [A,C] | [A,D]6 |] %17
V:2
 x2 | x8 | x8 | x8 | x8 | x8 | x8 | x8 | x8 | x8 | G4 x4 | x8 | A6 x2 | x8 | x8 | x8 | x6 |] %17
V:3
 [D,F,]2 | [D,F,]2 [D,A,]2 [D,B,]2 [D,G,]2 | [D,F,]4 [D,A,]2 [=C,A,]2 | %3
 [B,,G,]2 [B,,D]2 [A,,C]2 [G,,B,]2 | [A,,A,]6 [A,,G,]2 | [D,F,]2 [D,=C]2 [D,B,]2 [D,G,]2 | %6
 [D,F,]4 [D,A,]2 [D,A,]2 | [E,A,]2 [E,A,]2 [E,^G,]2 [E,B,]2 | [A,,A,]6 [A,,G,]2 | %9
 [D,F,]2 [A,=C]2 [F,C]2 [D,C]2 | (B,3 D) [G,B,]2 [F,A,]2 | [E,^G,]2 [B,D]2 [G,E]2 [E,D]2 | %12
 ([A,,C]4 [A,E]2) [G,C]2 | [F,D]2 [F,A,]2 [G,B,]2 [A,=C]2 | [B,D]4 [G,D]2 [G,,G,]2 | %15
 [A,,F,]2 [A,,A,]2 [A,,G,]3 [A,,E,] | [D,F,]6 |] %17
V:4
 x2 | x8 | x8 | x8 | x8 | x8 | x8 | x8 | x8 | x8 | G,,4 x4 | x8 | x8 | x8 | x8 | x8 | x6 |] %17

